Sources/FrostedUI/Resources/Icons.xcassets/couponActive24.imageset/coupon-active-24.svg

<svg width="24" height="24" viewBox="0 0 24 24" fill="none" xmlns="http://www.w3.org/2000/svg" data-fui-icon="true">
  <path
    d="M7.81348 0.5C8.50826 0.5 9.03099 0.964393 9.2627 1.47949C9.73306 2.52468 10.7826 3.25 12 3.25C13.2174 3.25 14.2669 2.52468 14.7373 1.47949C14.969 0.964393 15.4917 0.5 16.1865 0.5H19.25C20.4926 0.5 21.5 1.50736 21.5 2.75V21.25C21.5 22.4926 20.4926 23.5 19.25 23.5H16.1865C15.4917 23.5 14.969 23.0356 14.7373 22.5205C14.2669 21.4753 13.2174 20.75 12 20.75C10.7826 20.75 9.73306 21.4753 9.2627 22.5205C9.03099 23.0356 8.50826 23.5 7.81348 23.5H4.75C3.50736 23.5 2.5 22.4926 2.5 21.25V2.75C2.5 1.50736 3.50736 0.5 4.75 0.5H7.81348ZM4.75 2C4.33579 2 4 2.33579 4 2.75V21.25C4 21.6642 4.33579 22 4.75 22H7.81348C7.80783 22.0001 7.81301 22.0026 7.83008 21.9902C7.84984 21.9758 7.87577 21.947 7.89453 21.9053C8.59816 20.3414 10.1708 19.25 12 19.25C13.8292 19.25 15.4018 20.3414 16.1055 21.9053C16.1242 21.947 16.1502 21.9758 16.1699 21.9902C16.187 22.0026 16.1922 22.0001 16.1865 22H19.25C19.6642 22 20 21.6642 20 21.25V2.75C20 2.33579 19.6642 2 19.25 2H16.1865C16.1922 1.99991 16.187 1.99736 16.1699 2.00977C16.1502 2.02425 16.1242 2.05302 16.1055 2.09473C15.4018 3.65864 13.8292 4.75 12 4.75C10.1708 4.75 8.59816 3.65864 7.89453 2.09473C7.87577 2.05302 7.84984 2.02425 7.83008 2.00977C7.81301 1.99736 7.80783 1.99991 7.81348 2H4.75ZM15 13C16.1046 13 17 13.8954 17 15C17 16.1046 16.1046 17 15 17C13.8954 17 13 16.1046 13 15C13 13.8954 13.8954 13 15 13ZM15.2461 7.69336C15.539 7.40056 16.0138 7.40052 16.3066 7.69336C16.5995 7.98623 16.5994 8.46102 16.3066 8.75391L8.75391 16.3066C8.46103 16.5995 7.98624 16.5995 7.69336 16.3066C7.40051 16.0138 7.40053 15.539 7.69336 15.2461L15.2461 7.69336ZM15 14.5C14.7239 14.5 14.5 14.7239 14.5 15C14.5 15.2761 14.7239 15.5 15 15.5C15.2761 15.5 15.5 15.2761 15.5 15C15.5 14.7239 15.2761 14.5 15 14.5ZM9 7C10.1046 7 11 7.89543 11 9C11 10.1046 10.1046 11 9 11C7.89543 11 7 10.1046 7 9C7 7.89543 7.89543 7 9 7ZM9 8.5C8.72386 8.5 8.5 8.72386 8.5 9C8.5 9.27614 8.72386 9.5 9 9.5C9.27614 9.5 9.5 9.27614 9.5 9C9.5 8.72386 9.27614 8.5 9 8.5Z"
    fill="currentColor"
  />
</svg>

<svg xmlns="http://www.w3.org/2000/svg" width="24" height="24" fill="none" data-fui-icon="true" viewBox="0 0 24 24"><path fill="currentColor" d="M7.813.5c.695 0 1.218.464 1.45.98a3 3 0 0 0 5.474 0c.232-.516.755-.98 1.45-.98h3.063a2.25 2.25 0 0 1 2.25 2.25v18.5a2.25 2.25 0 0 1-2.25 2.25h-3.064c-.694 0-1.217-.464-1.449-.98a3 3 0 0 0-5.474 0c-.232.516-.755.98-1.45.98H4.75a2.25 2.25 0 0 1-2.25-2.25V2.75A2.25 2.25 0 0 1 4.75.5zM4.75 2a.75.75 0 0 0-.75.75v18.5c0 .414.336.75.75.75h3.063c-.005 0 0 .003.017-.01a.2.2 0 0 0 .065-.085 4.5 4.5 0 0 1 8.21 0c.02.042.045.07.065.085.017.013.022.01.016.01h3.064a.75.75 0 0 0 .75-.75V2.75a.75.75 0 0 0-.75-.75h-3.064c.006 0 .001-.003-.016.01a.2.2 0 0 0-.065.085 4.5 4.5 0 0 1-8.21 0 .2.2 0 0 0-.065-.085C7.813 1.997 7.808 2 7.813 2zM15 13a2 2 0 1 1 0 4 2 2 0 0 1 0-4m.246-5.307a.75.75 0 0 1 1.06 1.06l-7.552 7.554a.75.75 0 1 1-1.06-1.06zM15 14.5a.5.5 0 1 0 0 1 .5.5 0 0 0 0-1M9 7a2 2 0 1 1 0 4 2 2 0 0 1 0-4m0 1.5a.5.5 0 1 0 0 1 .5.5 0 0 0 0-1"/></svg>
